X: 17198
T: Henry McDermott Roe
R: waltz
M: 3/4
K: Gmajor
|:D2|G2 GA BA|G2 E2 D2|G2 GA Bc|d2 B2 G2|
ce dc BA|Bd cB AG|A2 Ac BA|B2 G2 E2|
G2 GA BA|G2 E2 D2|G2 GA Bc|d2 B2 G2|
ce dc BA|Bd gd Ac|B2 G2 F2|G3:|
|:d2|g2 ga gf|e2 d2 B2|ed ef ga|b2 g2 e2|
g2 ga gf|e2 d2 B2|ed eg fa|g4 d2|
g2 ga gf|e2 d2 B2|ed ef gf|ed cB AG|
ce dc BA|Bd gd Ac|B2 G2 F2|G3:|

